X: 27871
T: Mount Leinster, The
R: slide
M: 12/8
K: Dmajor
|:F2 A ABF A2 B d2 A|F2 A BAF B2 A E3|
F2 A BAF A2 B d2 A|A2 B d2 B AFE D3:|
|:d2 f edB A2 d F2 A|d2 f edA B2 e efe|
d2 f edB A2 d F2 B|A2 d F2 B AFE D3:|

